X: 829
T: Albert Farmer's Bonfire
R: barndance
M: 4/4
K: Dmajor
|:de|f3 d A2 F2|G2 GF G4|edcA B2 c2|dffd A2 de|
f3 d A2 F2|G2 GF E4|edcA B2 c2|d2 d2 d2:|
|:ag|f2 fd f2 f2|gfed e4|gfed cABc|
[1 dffd A2 ag|f2 fd f2 a2|gfed A4|gfed cABc|d2 dc d2:|
[2 dffd A2 de|f3 d A2 F2|G2 GF E4|e2 ed cABc|d2 f2 d2||

